pix_core/e/print.svg

<!DOCTYPE svg PUBLIC "-//W3C//DTD SVG 1.1//EN" "http://www.w3.org/Graphics/SVG/1.1/DTD/svg11.dtd" [
	<!ENTITY ns_flows "http://ns.adobe.com/Flows/1.0/">
]><svg xmlns="http://www.w3.org/2000/svg" width="16" height="16" viewBox="0 -1 16 16" preserveAspectRatio="xMinYMid meet" overflow="visible" enable-background="new 0 -1 16 16"><path d="M15.7 3.3c.2.2.3.4.3.7v5c0 .3-.1.5-.3.7-.2.2-.4.3-.7.3h-3v4H4v-4H1c-.3 0-.5-.1-.7-.3C.1 9.5 0 9.3 0 9V4c0-.3.1-.5.3-.7.2-.2.4-.3.7-.3h14c.3 0 .5.1.7.3zM4 2h8V0H4v2zm7 6H5v5h6V8zm3.5-4.2c-.2 0-.4.1-.5.2-.1.1-.2.3-.2.5s.1.4.2.5c.1.1.3.2.5.2s.4 0 .5-.2c.1-.1.2-.3.2-.5s-.1-.4-.2-.5c-.1-.2-.3-.2-.5-.2z" fill="#7575E0"/></svg>

<?xml version="1.0" encoding="utf-8"?>
<!-- Generator: Adobe Illustrator 15.1.0, SVG Export Plug-In  -->
<!DOCTYPE svg PUBLIC "-//W3C//DTD SVG 1.1//EN" "http://www.w3.org/Graphics/SVG/1.1/DTD/svg11.dtd" [
	<!ENTITY ns_flows "http://ns.adobe.com/Flows/1.0/">
]>
<svg version="1.1"
	 xmlns="http://www.w3.org/2000/svg" xmlns:xlink="http://www.w3.org/1999/xlink" xmlns:a="http://ns.adobe.com/AdobeSVGViewerExtensions/3.0/"
	 x="0px" y="0px" width="16px" height="16px" viewBox="0 -1 16 16" style="overflow:visible;enable-background:new 0 -1 16 16;"
	 xml:space="preserve" preserveAspectRatio="xMinYMid meet">
<defs>
</defs>
<path style="fill:#7575E0;" d="M15.7,3.3C15.9,3.5,16,3.7,16,4v5c0,0.3-0.1,0.5-0.3,0.7C15.5,9.9,15.3,10,15,10h-3v4H4v-4H1
	c-0.3,0-0.5-0.1-0.7-0.3C0.1,9.5,0,9.3,0,9V4c0-0.3,0.1-0.5,0.3-0.7C0.5,3.1,0.7,3,1,3h14C15.3,3,15.5,3.1,15.7,3.3z M4,2h8V0H4V2z
	 M11,8H5v5h6V8z M14.5,3.8c-0.2,0-0.4,0.1-0.5,0.2c-0.1,0.1-0.2,0.3-0.2,0.5c0,0.2,0.1,0.4,0.2,0.5c0.1,0.1,0.3,0.2,0.5,0.2
	S14.9,5.2,15,5c0.1-0.1,0.2-0.3,0.2-0.5c0-0.2-0.1-0.4-0.2-0.5C14.9,3.8,14.7,3.8,14.5,3.8z"/>
</svg>
